src/main/resources/icons/BVCoreIcons/resources/icons/libAnnotation.svg

<svg xmlns="http://www.w3.org/2000/svg" width="16" height="16" viewBox="0 0 16 16">
  <g fill="none" fill-rule="evenodd">
    <path fill="#62B543" fill-opacity=".6" d="M14.9291115,9 L14,9 L14,7 L10,7 L10,9 L7,9 L7,14.9291115 C3.607701,14.4438834 1,11.5264786 1,8 C1,4.134 4.134,1 8,1 C11.866,1 15,4.134 15,8 C15,8.33952142 14.9758282,8.67339709 14.9291115,9 Z"/>
    <path fill="#231F20" fill-opacity=".7" d="M7.6281,6.7611 C7.4731,6.8511 7.3451,6.9741 7.2461,7.1241 C7.1511,7.2721 7.0811,7.4411 7.0391,7.6261 C6.9971,7.8091 6.9761,7.9961 6.9761,8.1841 C6.9761,8.42446185 7.03530072,8.69642851 7.15370216,9 L8.47407188,9 C8.50122213,8.96808653 8.52089818,8.94145319 8.5331,8.9201 C8.6061,8.7931 8.6631,8.6401 8.7011,8.4641 C8.7391,8.2941 8.7641,8.1011 8.7731,7.8931 L8.8421,6.6991 L8.8001,6.6891 C8.6851,6.6621 8.5981,6.6481 8.5001,6.6371 C8.4021,6.6271 8.3041,6.6221 8.2021,6.6221 C7.9781,6.6221 7.7861,6.6681 7.6281,6.7611 Z M11.9690999,7 L11.023088,7 C10.7221904,4.88423942 8.67904346,4.7451 8.3161,4.7451 C7.7711,4.7451 4.94354248,4.85089111 4.94354248,8.0006 C4.94354248,8.51816835 4.94354248,10.6716124 7,11.1511646 L7,11.9412675 C5.79966452,11.7599882 4.0021,11.0201373 4.0021,8.0006 C4.0021,4.0011 7.66741943,4.0011 8.3161,4.0011 C8.6321081,4.0011 11.6308375,4.07704802 11.9690999,7 Z M7,9.89612699 C6.45745612,9.72039478 6.0001,9.2504536 6.0001,8.0001 C6.0001,6.32043457 7.45593262,6.0001 8.0001,6.0001 C8.1531,6.0001 9.7451,6.0551 9.8241,6.0791 L9.7441,8.1881 C9.71776254,8.55292669 9.75403673,8.82356003 9.85292256,9 L7,9 L7,9.89612699 Z"/>
    <rect width="2" height="6" x="14" y="10" fill="#40B6E0"/>
    <rect width="2" height="8" x="11" y="8" fill="#9AA7B0"/>
    <rect width="2" height="6" x="8" y="10" fill="#62B543"/>
  </g>
</svg>

<svg xmlns="http://www.w3.org/2000/svg" width="16" height="16" viewBox="0 0 16 16"><rect id="frame" width="16" height="16" fill="none"/><g fill="none" fill-rule="evenodd"><path fill="#62B543" fill-opacity=".6" d="M14.93 9H14V7h-4v2H7v5.93A7.002 7.002 0 0 1 8 1a7 7 0 0 1 6.93 8z"/><path fill="#231F20" fill-opacity=".7" d="M7.628 6.761c-.155.09-.283.213-.382.363a1.569 1.569 0 0 0-.207.502c-.042.183-.063.37-.063.558 0 .24.06.512.178.816h1.32a.564.564 0 0 0 .06-.08c.072-.127.13-.28.167-.456.038-.17.063-.363.072-.57l.07-1.195-.043-.01a2.4 2.4 0 0 0-.598-.067c-.224 0-.416.046-.574.14zM11.97 7h-.946c-.3-2.116-2.344-2.255-2.707-2.255-.545 0-3.372.106-3.372 3.256 0 .517 0 2.67 2.056 3.15v.79c-1.2-.181-2.998-.92-2.998-3.94 0-4 3.665-4 4.314-4 .316 0 3.315.076 3.653 2.999zM7 9.896C6.457 9.72 6 9.25 6 8c0-1.68 1.456-2 2-2 .153 0 1.745.055 1.824.08l-.08 2.108c-.026.365.01.636.109.812H7v.896z"/><path fill="#40B6E0" d="M14 10h2v6h-2z"/><path fill="#9AA7B0" d="M11 8h2v8h-2z"/><path fill="#62B543" d="M8 10h2v6H8z"/></g></svg>
